X: 1579
T: Pesendîde Sazsemâîsi
C: III. Selim (İlhâmî)
O: Turkey
F: http://compmusic.upf.edu/node/140
N: pesendide--sazsemaisi--aksaksemai----iii_selim
N: makam= pesendide
N: form= sazsemaisi
N: usul= aksaksemai = 10/8
M: 10/8
L: 1/16
K: C _1/4B ^f  
Q: 1/4=120
%%MIDI tuningsystem comma53
g4 f2e4d2 {e}d^c=B2 A2G2  | g4 a2g2 f2e2 d2d4z2  | \
w:  1. HANE  |   | 
=B2B^c d2e2 f2g2 fedc B2z2  | 
w:   | 
=B2A2 G2A3_BAG FGA6  | z2FG A2B3cB2 A2B3AG2  | 
w:   |  TESLİM   | 
A3B AGFE D2B2 AGG4z2  | G4 F2G4B2 c2d4z2  | \
w:   |  2. HANE  | 
g4 f2g4a2 _b2a2 g2f2  | 
w:   | 
g4 _b2a2 g2f2 _7/8e2d4z2  | z2cd _e2d2 c2_B2 A2G4z2  | \
w:   |   | 
z2FG A2B3cB2 A2B3AG2  | 
w:  TESLİM   | 
A3B AGFE D2B2 AGG4z2  | g4 a2g2 f2e2 d2c4B2  | \
w:   |  3. HANE  | 
A4 e2d2 c2B2 A2G4z2  | 
w:   | 
G2A2 B2c2 d2e2 f2g4f2  | g4 b2a2 g2f2 a2g4z2  | \
w:   |   | 
z2FG A2B3cB2 A2B3AG2  | 
w:  TESLİM   | 
A3B AGFE D2B2 AGG4z2  | z12  | g2g2b2a2a2ga  | \
w:   |  |  4. HANE  | 
B2B2cde2e2fg  | 
w:   | 
b2b2c'2bc'b2a2  | f2f2edb2b2ag  | d2d2g2f2a4  | \
w:   |   |   | 
g2g2fed2d2cB  | 
w:   | 
B2B2A2G2G2e2  | d2c2B2A2G4  | z20  | z2FG A2B3cB2 A2B3AG2  | 
w:   |   |  |  TESLİM   | 
A3B AGFE D2B2 AGG4z2  | |


